src/xmb/retrosystem/Magnavox - Odyssey2-content.svg

<svg xmlns="http://www.w3.org/2000/svg" xml:space="preserve" width="256" height="256" viewBox="0 0 341.333 341.333"><path d="M210.461 37.333h-73.136V16.005h73.136z" style="fill:#4d4d4d;fill-opacity:1;fill-rule:nonzero;stroke:none;stroke-width:1.33333325"/><path d="M272 325.333H69.333V82.667H272Z" style="fill:#262626;fill-opacity:1;fill-rule:nonzero;stroke:none;stroke-width:1.33333325"/><path d="M144 325.333h-26.667v-26.666H144Z" style="fill:#191919;fill-opacity:1;fill-rule:nonzero;stroke:none;stroke-width:1.33333325"/><path d="M0 0c0-2.949-2.762-5.333-6.178-5.333h-123.559c-3.416 0-6.178 2.384-6.178 5.333v122.668c0 2.949 2.762 5.333 6.178 5.333H-6.178c3.416 0 6.178-2.384 6.178-5.333z" style="fill:#262626;fill-opacity:1;fill-rule:nonzero;stroke:none" transform="matrix(1.33333 0 0 -1.33333 261.847 268.794)"/><path d="M0 0h-123.636c-3.419 0-6.182-2.36-6.182-5.28v-121.44c0-2.92 2.763-5.28 6.182-5.28H0c3.419 0 6.182 2.36 6.182 5.28V-5.28C6.182-2.36 3.419 0 0 0m0-2c2.306 0 4.182-1.471 4.182-3.28v-121.44c0-1.809-1.876-3.28-4.182-3.28h-123.636c-2.306 0-4.182 1.471-4.182 3.28V-5.28c0 1.809 1.876 3.28 4.182 3.28z" style="fill:#191919;fill-opacity:1;fill-rule:nonzero;stroke:none" transform="matrix(1.33333 0 0 -1.33333 253.662 96)"/><g style="fill:#4d4d4d"><path d="M0 0s-10.611-46.524-8.382-46.524h23.748l3.958 36h25.987V5.472H12.507S1.403 5.819 0 0" style="fill:#4d4d4d;fill-opacity:1;fill-rule:nonzero;stroke:none" transform="matrix(1.33333 0 0 -1.33333 80.92 23.3)"/></g><g style="fill:#4d4d4d"><path d="M0 0s10.611-46.524 8.382-46.524h-23.748l-3.958 36h-25.987V5.472h32.804S-1.403 5.819 0 0" style="fill:#4d4d4d;fill-opacity:1;fill-rule:nonzero;stroke:none" transform="matrix(1.33333 0 0 -1.33333 260.414 23.3)"/></g><path d="M240 133.333H101.333v-2.666H240zM240 112H101.333v-2.667H240z" style="fill:#fff;fill-opacity:1;fill-rule:nonzero;stroke:none;stroke-width:1.33333325"/><path d="M0 0h-3.631l-10.584 19.875h5.096z" style="fill:#f39b11;fill-opacity:1;fill-rule:nonzero;stroke:none" transform="matrix(1.33333 0 0 -1.33333 140.545 170.5)"/><path d="m0 0-10.899 16.061h-5.097L-1.042-3.814h9.211L6.013 0Z" style="fill:#f39b11;fill-opacity:1;fill-rule:nonzero;stroke:none" transform="matrix(1.33333 0 0 -1.33333 122.66 165.414)"/><path d="M0 0h-1.944L4.51 9.726h2.301Zm11.247 16.061H3.618L-8.106-3.814h8.001L2.765 0l7.317 9.726 4.767 6.335z" style="fill:#f39b11;fill-opacity:1;fill-rule:nonzero;stroke:none" transform="matrix(1.33333 0 0 -1.33333 220.202 165.414)"/><path d="M0 0h-10.381l-1.312-6.335h2.401l-3.321-13.54h3.631l4.319 13.54h2.4z" style="fill:#f39b11;fill-opacity:1;fill-rule:nonzero;stroke:none" transform="matrix(1.33333 0 0 -1.33333 203.586 144)"/><path d="M0 0h3.415l.258-2.751H.408Zm7.613-13.485L5.312-7.588h1.692l-.202 4.837L6.686 0l-.265 6.335H-6.036l4.415-19.875h3.63l-.883 5.952H2.4l2.613-5.898z" style="fill:#f39b11;fill-opacity:1;fill-rule:nonzero;stroke:none" transform="matrix(1.33333 0 0 -1.33333 158.245 152.447)"/><path d="M0 0h3.415L2.017-2.751h-3.265zm-.504-13.485L.745-7.588h1.692l2.709 4.837L6.686 0l3.548 6.335H-2.223L-9.771-13.54h3.631l2.699 5.952h1.274l-.938-5.898z" style="fill:#f39b11;fill-opacity:1;fill-rule:nonzero;stroke:none" transform="matrix(1.33333 0 0 -1.33333 208.627 152.447)"/><path d="m0 0 1.075 6.335h-12.458l.211-19.875h8.875l.647 3.814h-5.651l.135 2.138h5.879l.82 4.837H-6.86L-6.686 0Z" style="fill:#f39b11;fill-opacity:1;fill-rule:nonzero;stroke:none" transform="matrix(1.33333 0 0 -1.33333 184.868 152.447)"/><path d="M0 0h-3.265l-.992 2.751h3.415zm2.135-6.975H-.751l-.77 2.138h3.002Zm-.817 4.489L3.112.065 2.43 2.751.821 9.086h-12.457l8.63-19.875h8.875L4.9-6.975l-.543 2.138-.002.007Z" style="fill:#f39b11;fill-opacity:1;fill-rule:nonzero;stroke:none" transform="matrix(1.33333 0 0 -1.33333 146.167 156.115)"/><path d="M0 0h-6.195l-12.132 16.125h9.211z" style="fill:#f1c40f;fill-opacity:1;fill-rule:nonzero;stroke:none" transform="matrix(1.33333 0 0 -1.33333 145.707 192)"/><path d="M0 0h-2.442l-8.587 16.125h3.631z" style="fill:#f1c40f;fill-opacity:1;fill-rule:nonzero;stroke:none" transform="matrix(1.33333 0 0 -1.33333 150.41 192)"/><path d="M0 0h-5.969l-7.001 16.125h8.875z" style="fill:#f1c40f;fill-opacity:1;fill-rule:nonzero;stroke:none" transform="matrix(1.33333 0 0 -1.33333 159.453 192)"/><path d="M0 0h-2.442l-3.582 16.125h3.631z" style="fill:#f1c40f;fill-opacity:1;fill-rule:nonzero;stroke:none" transform="matrix(1.33333 0 0 -1.33333 164.115 192)"/><path d="M0 0h-1.747l-1.412 16.179h2.6z" style="fill:#f1c40f;fill-opacity:1;fill-rule:nonzero;stroke:none" transform="matrix(1.33333 0 0 -1.33333 169.141 192)"/><path d="M0 0h5.969l2.735 16.125H-.171Z" style="fill:#f1c40f;fill-opacity:1;fill-rule:nonzero;stroke:none" transform="matrix(1.33333 0 0 -1.33333 170.2 192)"/><path d="M0 0h-2.407l3.955 16.125h3.579Z" style="fill:#f1c40f;fill-opacity:1;fill-rule:nonzero;stroke:none" transform="matrix(1.33333 0 0 -1.33333 184.705 192)"/><path d="M0 0h-2.442l6.124 16.125h3.631Z" style="fill:#f1c40f;fill-opacity:1;fill-rule:nonzero;stroke:none" transform="matrix(1.33333 0 0 -1.33333 190.69 192)"/><path d="M0 0h-1.747l8.325 16.179h2.601Z" style="fill:#f1c40f;fill-opacity:1;fill-rule:nonzero;stroke:none" transform="matrix(1.33333 0 0 -1.33333 195.717 192)"/><path d="M0 0h5.381l12.132 16.125H9.512Z" style="fill:#f1c40f;fill-opacity:1;fill-rule:nonzero;stroke:none" transform="matrix(1.33333 0 0 -1.33333 196.712 192)"/><path d="M0 0h2.581v-1.368h1.291v-.966h1.292v.969h1.288V0h2.58v-8h-2.58v4.873H5.16v-1.354H3.868v1.353H2.581V-8H0Z" style="fill:#3b96cc;fill-opacity:1;fill-rule:nonzero;stroke:none" transform="matrix(1.33333 0 0 -1.33333 185.29 250.667)"/><path d="M147.45 260.023h5.145v-8.05h-5.144zm6.873 1.31h-8.603v-1.561H144v-7.544h1.72v-1.561h8.603v1.568h1.713v7.54h-1.713z" style="fill:red;fill-opacity:1;fill-rule:nonzero;stroke:none;stroke-width:1.33333325"/><path d="M0 0v-.974h-6.446v-2.533h3.858v-.979h-3.858v-2.533H0V-8h-9.032v8z" style="fill:#f1c40f;fill-opacity:1;fill-rule:nonzero;stroke:none" transform="matrix(1.33333 0 0 -1.33333 183.57 250.667)"/><path d="M0 0v2.145h1.288v1.169h1.288v1.169h1.292v1.172h1.285v1.363H2.584V5.861H.007v.966H1.29V8h5.162V6.827h1.283V5.85H6.449V4.682H5.157V3.51H3.869V2.338H2.586V.974h5.156V0Z" style="fill:#0f0;fill-opacity:1;fill-rule:nonzero;stroke:none" transform="matrix(1.33333 0 0 -1.33333 159.484 261.333)"/></svg>

<?xml version="1.0" encoding="UTF-8" standalone="no"?>
<svg
   xmlns:dc="http://purl.org/dc/elements/1.1/"
   xmlns:cc="http://creativecommons.org/ns#"
   xmlns:rdf="http://www.w3.org/1999/02/22-rdf-syntax-ns#"
   xmlns:svg="http://www.w3.org/2000/svg"
   xmlns="http://www.w3.org/2000/svg"
   xmlns:sodipodi="http://sodipodi.sourceforge.net/DTD/sodipodi-0.dtd"
   xmlns:inkscape="http://www.inkscape.org/namespaces/inkscape"
   viewBox="0 0 341.33334 341.33334"
   height="256"
   width="256"
   xml:space="preserve"
   id="svg2"
   version="1.1"
   sodipodi:docname="Magnavox - Odyssey2-content.svg"
   inkscape:version="0.92.2 (5c3e80d, 2017-08-06)"><sodipodi:namedview
     pagecolor="#ffffff"
     bordercolor="#666666"
     borderopacity="1"
     objecttolerance="10"
     gridtolerance="10"
     guidetolerance="10"
     inkscape:pageopacity="0"
     inkscape:pageshadow="2"
     inkscape:window-width="1024"
     inkscape:window-height="705"
     id="namedview78"
     showgrid="false"
     inkscape:pagecheckerboard="true"
     inkscape:zoom="1.9555921"
     inkscape:cx="130.37878"
     inkscape:cy="238.5421"
     inkscape:window-x="-8"
     inkscape:window-y="-8"
     inkscape:window-maximized="1"
     inkscape:current-layer="svg2" /><metadata
     id="metadata8"><rdf:RDF><cc:Work
         rdf:about=""><dc:format>image/svg+xml</dc:format><dc:type
           rdf:resource="http://purl.org/dc/dcmitype/StillImage" /><dc:title /></cc:Work></rdf:RDF></metadata><defs
     id="defs6"><clipPath
       id="clipPath18"
       clipPathUnits="userSpaceOnUse"><path
         id="path16"
         d="M 0,256 H 256 V 0 H 0 Z" /></clipPath><clipPath
       id="clipPath26"
       clipPathUnits="userSpaceOnUse"><path
         id="path24"
         d="M 44,252 H 212 V 4 H 44 Z" /></clipPath><clipPath
       id="clipPath48"
       clipPathUnits="userSpaceOnUse"><path
         id="path46"
         d="M 0,256 H 256 V 0 H 0 Z" /></clipPath></defs><path
     inkscape:connector-curvature="0"
     d="m 210.46133,37.333338 h -73.136 v -21.328 h 73.136 z"
     style="fill:#4d4d4d;fill-opacity:1;fill-rule:nonzero;stroke:none;stroke-width:1.33333325"
     id="path36" /><path
     inkscape:connector-curvature="0"
     d="M 271.99999,325.33333 H 69.333332 V 82.66667 H 271.99999 Z"
     style="fill:#262626;fill-opacity:1;fill-rule:nonzero;stroke:none;stroke-width:1.33333325"
     id="path38" /><path
     inkscape:connector-curvature="0"
     d="M 144,325.33333 H 117.33333 V 298.66666 H 144 Z"
     style="fill:#191919;fill-opacity:1;fill-rule:nonzero;stroke:none;stroke-width:1.33333325"
     id="path40" /><g
     id="g50"
     transform="matrix(1.3333333,0,0,-1.3333333,261.84706,268.794)"><path
       inkscape:connector-curvature="0"
       d="m 0,0 c 0,-2.949 -2.762,-5.333 -6.178,-5.333 h -123.559 c -3.416,0 -6.178,2.384 -6.178,5.333 v 122.668 c 0,2.949 2.762,5.333 6.178,5.333 H -6.178 c 3.416,0 6.178,-2.384 6.178,-5.333 z"
       style="fill:#262626;fill-opacity:1;fill-rule:nonzero;stroke:none"
       id="path52" /></g><g
     id="g54"
     transform="matrix(1.3333333,0,0,-1.3333333,253.66159,96.000003)"><path
       inkscape:connector-curvature="0"
       d="m 0,0 h -123.636 c -3.419,0 -6.182,-2.36 -6.182,-5.28 v -121.44 c 0,-2.92 2.763,-5.28 6.182,-5.28 H 0 c 3.419,0 6.182,2.36 6.182,5.28 V -5.28 C 6.182,-2.36 3.419,0 0,0 m 0,-2 c 2.306,0 4.182,-1.471 4.182,-3.28 V -126.72 C 4.182,-128.529 2.306,-130 0,-130 h -123.636 c -2.306,0 -4.182,1.471 -4.182,3.28 V -5.28 c 0,1.809 1.876,3.28 4.182,3.28 L 0,-2"
       style="fill:#191919;fill-opacity:1;fill-rule:nonzero;stroke:none"
       id="path56" /></g><g
     id="g58"
     transform="matrix(1.3333333,0,0,-1.3333333,80.919198,23.300805)"
     style="fill:#4d4d4d"><path
       inkscape:connector-curvature="0"
       d="m 0,0 c 0,0 -10.611,-46.524 -8.382,-46.524 h 23.748 l 3.958,36 H 45.311 V 5.472 H 12.507 C 12.507,5.472 1.403,5.819 0,0"
       style="fill:#4d4d4d;fill-opacity:1;fill-rule:nonzero;stroke:none"
       id="path60" /></g><g
     id="g62"
     transform="matrix(1.3333333,0,0,-1.3333333,260.41413,23.300805)"
     style="fill:#4d4d4d"><path
       inkscape:connector-curvature="0"
       d="m 0,0 c 0,0 10.611,-46.524 8.382,-46.524 h -23.748 l -3.958,36 H -45.311 V 5.472 h 32.804 c 0,0 11.104,0.347 12.507,-5.472"
       style="fill:#4d4d4d;fill-opacity:1;fill-rule:nonzero;stroke:none"
       id="path64" /></g><path
     inkscape:connector-curvature="0"
     d="M 239.99999,133.33334 H 101.33333 v -2.66667 h 138.66666 z"
     style="fill:#ffffff;fill-opacity:1;fill-rule:nonzero;stroke:none;stroke-width:1.33333325"
     id="path66" /><path
     inkscape:connector-curvature="0"
     d="M 239.99999,112 H 101.33333 v -2.66666 h 138.66666 z"
     style="fill:#ffffff;fill-opacity:1;fill-rule:nonzero;stroke:none;stroke-width:1.33333325"
     id="path68" /><g
     id="g70"
     transform="matrix(1.3333333,0,0,-1.3333333,140.5452,170.49987)"><path
       inkscape:connector-curvature="0"
       d="m 0,0 h -3.631 l -10.584,19.875 h 5.096 z"
       style="fill:#f39b11;fill-opacity:1;fill-rule:nonzero;stroke:none"
       id="path72" /></g><g
     id="g74"
     transform="matrix(1.3333333,0,0,-1.3333333,122.6608,165.4144)"><path
       inkscape:connector-curvature="0"
       d="m 0,0 -10.899,16.061 h -5.097 L -1.042,-3.814 H 0.773 2.588 8.169 L 6.013,0 Z"
       style="fill:#f39b11;fill-opacity:1;fill-rule:nonzero;stroke:none"
       id="path76" /></g><g
     id="g78"
     transform="matrix(1.3333333,0,0,-1.3333333,220.20173,165.4144)"><path
       inkscape:connector-curvature="0"
       d="M 0,0 H -1.944 L 4.51,9.726 H 6.811 Z M 11.247,16.061 H 8.714 4.468 3.618 L -8.106,-3.814 h 0.606 3.025 1.804 2.566 L 2.765,0 l 7.317,9.726 4.767,6.335 z"
       style="fill:#f39b11;fill-opacity:1;fill-rule:nonzero;stroke:none"
       id="path80" /></g><g
     id="g82"
     transform="matrix(1.3333333,0,0,-1.3333333,203.58613,144)"><path
       inkscape:connector-curvature="0"
       d="m 0,0 h -2.642 -5.097 -2.642 l -1.312,-6.335 h 2.401 l -3.321,-13.54 h 3.631 l 4.319,13.54 h 2.4 z"
       style="fill:#f39b11;fill-opacity:1;fill-rule:nonzero;stroke:none"
       id="path84" /></g><g
     id="g86"
     transform="matrix(1.3333333,0,0,-1.3333333,158.2452,152.44667)"><path
       inkscape:connector-curvature="0"
       d="M 0,0 H 3.415 L 3.673,-2.751 H 0.408 Z M 7.613,-13.485 5.312,-7.588 H 7.004 L 6.802,-2.751 6.686,0 6.421,6.335 H -6.036 l 4.415,-19.875 h 3.63 L 1.126,-7.588 H 2.4 l 2.613,-5.898 z"
       style="fill:#f39b11;fill-opacity:1;fill-rule:nonzero;stroke:none"
       id="path88" /></g><g
     id="g90"
     transform="matrix(1.3333333,0,0,-1.3333333,208.62733,152.44667)"><path
       inkscape:connector-curvature="0"
       d="M 0,0 H 3.415 L 2.017,-2.751 h -3.265 z m -0.504,-13.485 1.249,5.897 H 2.437 L 5.146,-2.751 6.686,0 10.234,6.335 H -2.223 L -9.771,-13.54 h 3.631 l 2.699,5.952 h 1.274 l -0.938,-5.898 z"
       style="fill:#f39b11;fill-opacity:1;fill-rule:nonzero;stroke:none"
       id="path92" /></g><g
     id="g94"
     transform="matrix(1.3333333,0,0,-1.3333333,184.86826,152.44667)"><path
       inkscape:connector-curvature="0"
       d="m 0,0 1.075,6.335 h -7.361 -3.02 -2.077 l 0.211,-19.875 h 1.479 2.151 5.245 l 0.647,3.814 h -5.651 l 0.135,2.138 h 5.879 l 0.82,4.837 H -6.86 L -6.686,0 Z"
       style="fill:#f39b11;fill-opacity:1;fill-rule:nonzero;stroke:none"
       id="path96" /></g><g
     id="g98"
     transform="matrix(1.3333333,0,0,-1.3333333,146.16746,156.1148)"><path
       inkscape:connector-curvature="0"
       d="m 0,0 h -3.265 l -0.992,2.751 h 3.415 z m 2.135,-6.975 h -2.886 l -0.77,2.138 H 1.481 Z M 1.318,-2.486 3.112,0.065 2.43,2.751 0.821,9.086 h -12.457 l 8.63,-19.875 H 5.869 L 4.9,-6.975 4.357,-4.837 4.355,-4.83 Z"
       style="fill:#f39b11;fill-opacity:1;fill-rule:nonzero;stroke:none"
       id="path100" /></g><g
     id="g102"
     transform="matrix(1.3333333,0,0,-1.3333333,145.7068,192)"><path
       inkscape:connector-curvature="0"
       d="m 0,0 h -6.195 l -12.132,16.125 h 9.211 z"
       style="fill:#f1c40f;fill-opacity:1;fill-rule:nonzero;stroke:none"
       id="path104" /></g><g
     id="g106"
     transform="matrix(1.3333333,0,0,-1.3333333,150.40933,192)"><path
       inkscape:connector-curvature="0"
       d="m 0,0 h -2.442 l -8.587,16.125 h 3.631 z"
       style="fill:#f1c40f;fill-opacity:1;fill-rule:nonzero;stroke:none"
       id="path108" /></g><g
     id="g110"
     transform="matrix(1.3333333,0,0,-1.3333333,159.4528,192)"><path
       inkscape:connector-curvature="0"
       d="m 0,0 h -5.969 l -7.001,16.125 h 8.875 z"
       style="fill:#f1c40f;fill-opacity:1;fill-rule:nonzero;stroke:none"
       id="path112" /></g><g
     id="g114"
     transform="matrix(1.3333333,0,0,-1.3333333,164.11466,192)"><path
       inkscape:connector-curvature="0"
       d="m 0,0 h -2.442 l -3.582,16.125 h 3.631 z"
       style="fill:#f1c40f;fill-opacity:1;fill-rule:nonzero;stroke:none"
       id="path116" /></g><g
     id="g118"
     transform="matrix(1.3333333,0,0,-1.3333333,169.1412,192)"><path
       inkscape:connector-curvature="0"
       d="m 0,0 h -1.747 l -1.412,16.179 h 2.6 z"
       style="fill:#f1c40f;fill-opacity:1;fill-rule:nonzero;stroke:none"
       id="path120" /></g><g
     id="g122"
     transform="matrix(1.3333333,0,0,-1.3333333,170.19946,192)"><path
       inkscape:connector-curvature="0"
       d="M 0,0 H 5.969 L 8.704,16.125 H -0.171 Z"
       style="fill:#f1c40f;fill-opacity:1;fill-rule:nonzero;stroke:none"
       id="path124" /></g><g
     id="g126"
     transform="matrix(1.3333333,0,0,-1.3333333,184.7052,192)"><path
       inkscape:connector-curvature="0"
       d="M 0,0 H -2.407 L 1.548,16.125 H 5.127 Z"
       style="fill:#f1c40f;fill-opacity:1;fill-rule:nonzero;stroke:none"
       id="path128" /></g><g
     id="g130"
     transform="matrix(1.3333333,0,0,-1.3333333,190.69,192)"><path
       inkscape:connector-curvature="0"
       d="M 0,0 H -2.442 L 3.682,16.125 H 7.313 Z"
       style="fill:#f1c40f;fill-opacity:1;fill-rule:nonzero;stroke:none"
       id="path132" /></g><g
     id="g134"
     transform="matrix(1.3333333,0,0,-1.3333333,195.71666,192)"><path
       inkscape:connector-curvature="0"
       d="M 0,0 H -1.747 L 6.578,16.179 H 9.179 Z"
       style="fill:#f1c40f;fill-opacity:1;fill-rule:nonzero;stroke:none"
       id="path136" /></g><g
     id="g138"
     transform="matrix(1.3333333,0,0,-1.3333333,196.71173,192)"><path
       inkscape:connector-curvature="0"
       d="M 0,0 H 5.381 L 17.513,16.125 H 9.512 Z"
       style="fill:#f1c40f;fill-opacity:1;fill-rule:nonzero;stroke:none"
       id="path140" /></g><g
     id="g142"
     transform="matrix(1.3333333,0,0,-1.3333333,185.29026,250.66667)"><path
       inkscape:connector-curvature="0"
       d="m 0,0 h 2.581 v -1.368 h 1.291 v -0.966 h 1.292 v 0.969 H 6.452 V 0 h 2.58 v -8 h -2.58 v 4.873 H 5.16 V -4.481 H 3.868 v 1.353 H 2.581 V -8 H 0 Z"
       style="fill:#3b96cc;fill-opacity:1;fill-rule:nonzero;stroke:none"
       id="path144" /></g><path
     inkscape:connector-curvature="0"
     d="m 147.45066,260.02267 h 5.144 v -8.04934 h -5.144 z m 6.872,1.31066 H 145.72 V 259.772 H 144 v -7.544 h 1.72 v -1.56133 h 8.60266 v 1.568 h 1.71334 v 7.54 h -1.71334 z"
     style="fill:#ff0000;fill-opacity:1;fill-rule:nonzero;stroke:none;stroke-width:1.33333325"
     id="path146" /><g
     id="g148"
     transform="matrix(1.3333333,0,0,-1.3333333,183.56986,250.66667)"><path
       inkscape:connector-curvature="0"
       d="m 0,0 v -0.974 h -6.446 v -2.533 h 3.858 V -4.486 H -6.446 V -7.019 H 0 V -8 h -9.032 v 8 z"
       style="fill:#f1c40f;fill-opacity:1;fill-rule:nonzero;stroke:none"
       id="path150" /></g><g
     id="g152"
     transform="matrix(1.3333333,0,0,-1.3333333,159.48386,261.33333)"><path
       inkscape:connector-curvature="0"
       d="M 0,0 V 2.145 H 1.288 V 3.314 H 2.576 V 4.483 H 3.868 V 5.655 H 5.153 V 7.018 H 2.584 V 5.861 H 0.007 V 6.827 H 1.29 V 8 H 6.452 V 6.827 H 7.735 V 5.85 H 6.449 V 4.682 H 5.157 V 3.51 H 3.869 V 2.338 H 2.586 V 0.974 H 7.742 V 0 Z"
       style="fill:#00ff00;fill-opacity:1;fill-rule:nonzero;stroke:none"
       id="path154" /></g></svg>
